X:1
T:Hatırla Sevgili Jazz
T:Hatırla Sevgili Jazz
C:Muhlis Sabahattin Ezgi
%%score { 1 | 2 } 3
L:1/8
Q:1/4=180
M:3/4
K:D
V:1 treble nm="Piyano" snm="Pno."
V:2 bass 
V:3 treble nm="Keman" snm="Kem."
V:1
!mp! z [E,G,B,]2 z [E,G,B,]2 | z [E,G,C]2 z [E,G,C]2 | z [F,B,D]2 z [F,B,D]2 | %3
 z [G,B,D]2 z [F,B,D]2 | z [F,^A,C]2 z [F,A,C]2 | [E,^A,C]2 z [E,G,A,] z [E,A,C] | %6
 z [F,B,D]2 z [F,B,D]2 | z [F,B,D]2 z [F,^A,D]2 | [F,B,D]2 z [F,^A,D] z [F,B,D] | %9
 z [F,B,D]2 z [F,B,D]2 | z [F,B,D]2 z [F,B,D]2 | z [F,B,D]2 z [F,^A,D]2 | z [F,B,D]2 z [F,B,D]2 | %13
 z [F,B,D]2 z [F,B,D]2 | z [F,B,D]2 z [F,B,D]2 | z [G,B,D]2 z [=F,B,D]2 | z [F,^A,C]2 z [F,A,C]2 | %17
 [F,^A,C]2 z [E,G,A,] z [F,A,C] | z [F,^A,C]2 z [F,A,C]2 | z [F,B,D]2 z [F,B,^D]2 | %20
 z [E,G,B,]2 z [E,G,B,]2 | z [E,G,C]2 z [E,G,C]2 | z [F,^A,C]2 z [F,A,C]2 | %23
 z [E,^A,C]2 z [E,A,C]2 | z [F,B,D]2 z [F,B,D]2 | z [F,B,D]2 z [F,^A,D]2 | z [F,^A,C]2 z [F,A,C]2 | %27
 [E,^A,C]2 z [E,G,A,] z [E,A,C] | z [F,B,D]2 z [F,B,D]2 | z [F,B,^D]2 z [F,B,D]2 | %30
 z [E,G,B,]2 z [E,G,B,]2 | z [E,G,C]2 z [E,G,C]2 | z [F,B,D]2 z [F,B,D]2 | z [F,B,^D]2 z [F,A,D]2 | %34
 z [E,G,B,]2 z [E,G,B,]2 | z [E,G,C]2 z [E,G,C]2 | z [F,A,D]2 z [F,B,D]2 | z [G,B,D]2 z [F,B,D]2 | %38
 z [F,^A,C]2 z [F,A,C]2 | [E,^A,C]2 z [E,G,A,] z [E,A,C] | z [F,B,D]2 z [F,B,D]2 | %41
 z [F,B,D]2 z [F,^A,D]2 | z [F,^A,C]2 z [F,A,C]2 | z [E,^A,C]2 z [E,A,C]2 | z [F,B,D]2 z [F,A,D]2 | %45
 z [F,B,^D]2 z [F,A,D]2 | z [E,G,B,]2 z [E,G,B,]2 | z [G,_B,E]2 z [G,B,E]2 | %48
 z [F,B,D]2 z [F,B,D]2 | z [F,B,^D]2 z [F,B,D]2 | z [E,G,B,]2 z [E,G,B,]2 | %51
 z [G,_B,E]2 z [G,B,E]2 | z [F,B,D]2 z [F,B,D]2 | z [G,B,D]2 z [F,B,D]2 | z [G,_B,E]2 z [G,B,E]2 | %55
 z [F,A,=C]2 z [A,C_E]2 | z [F,B,D]2 z [F,^A,D]2 |[K:G] [A,__D^D]2 z [A,__DF] z [A,__D^D] | %58
 z [G,CE]2 z [G,_B,E]2 | z [F,B,^D]2 z [F,B,D]2 | z [F,B,^D]2 z [F,A,D]2 | z [B,^DF]2 z [B,DF]2 | %62
 z [A,^DF]2 z [A,DF]2 | z [B,^DF]2 z [B,DF]2 | z [A,__D^D]2 z [A,__D^D]2 | z [G,CE]2 z [G,CE]2 | %66
 z [G,B,^D]2 z [G,B,D]2 | z [G,CE]2 z [G,CE]2 | z [B,^DF]2 z [A,DF]2 | z [G,B,E]2 z [G,B,E]2 | %70
 z [G,B,D]2 z [G,B,D]2 | z [G,CE]2 z [G,CE]2 | z [G,^A,E]2 z [G,A,E]2 | z [B,^DF]2 z [B,DF]2 | %74
 z [B,^DF]2 z [A,DF]2 | z [G,CE]2 z [G,CE]2 | z [G,^A,E]2 z [G,A,E]2 | z [B,^DF]2 z [B,DF]2 | %78
 z [B,^DF]2 z [A,DF]2 | z [G,B,E]2 z [G,B,E]2 | z [A,__DE]2 z [A,__D^D]2 | z [B,^DF]2 z [B,DF]2 | %82
 z [B,^DF]2 z [A,DF]2 | z [G,B,E]2 z [G,B,E]2 | z [A,__DE]2 z [A,__D^D]2 | z [B,^DF]2 z [B,DF]2 | %86
 z [A,^DF]2 z [A,DF]2 | z [G,CE]2 z [G,CE]2 | z [G,^A,E]2 z [G,A,E]2 | z [B,^DF]2 z [B,DF]2 | %90
 z [B,^DF]2 z [A,DF]2 | z [G,CE]2 z [G,CE]2 | z [G,^A,E]2 z [G,A,E]2 | z [B,^DF]2 z [B,DF]2 | %94
 z [B,^DF]2 z [A,DF]2 | z [G,B,E]2 z [G,B,E]2 | z [A,__DE]2 z [A,__D^D]2 | z [B,^DF]2 z [B,DF]2 | %98
 z [B,^DF]2 z [A,DF]2 | z [G,B,E]2 z [G,B,E]2 | z [A,__DE]2 z [A,__D^D]2 | z [B,^DF]2 z [B,DF]2 | %102
 z [A,^DF]2 z [A,DF]2 | z [G,CE]2 z [G,CE]2 | z [^A,^CF]2 z [A,CE]2 | z [B,^DF]2 z [B,DF]2 | %106
 z [B,^DF]2 z [B,DF]2 |] %107
V:2
 E,,2 z E,,2 G,, | B,,2 z C,2 B,, | D,2 z B,,2 ^A,, | G,,2 z F,,2 ^E,, | F,,2 z F,,2 ^A,, | %5
 z C,2 z ^A,,2 | B,,2 z B,,2 G,, | F,,2 z ^A,,2 z | z B,,2 z B,,2 | F,,2 z F,,2 ^A,, | %10
 B,,2 z B,,2 ^A,, | F,,2 z ^A,,2 z | B,,2 z B,,2 ^A,, | F,,2 z F,,2 ^A,, | B,,2 z B,,2 ^A,, | %15
 G,,2 z =F,,2 z | F,,2 z F,,2 ^A,, | z C,2 z C,2 | F,,2 z F,,2 ^A,, | B,,2 z ^D,2 G,, | %20
 E,,2 z E,,2 G,, | B,,2 z B,,2 G,, | F,,2 z F,,2 ^A,, | C,2 z ^A,,2 z | B,,2 z B,,2 ^A,, | %25
 B,,2 z ^A,,2 G,, | F,,2 z F,,2 ^A,, | z C,2 z ^A,,2 | B,,2 z B,,2 D, | ^D,2 z A,,2 =F,, | %30
 E,,2 z E,,2 G,, | B,,2 z B,,2 z | B,,2 z B,,2 D, | ^D,2 z A,,2 =F,, | E,,2 z E,,2 G,, | %35
 B,,2 z B,,2 z | B,,2 z B,,2 z | G,,2 z F,,2 z | F,,2 z F,,2 ^A,, | z C,2 z ^A,,2 | B,,2 z B,,2 z | %41
 B,,2 z ^A,,2 G,, | F,,2 z F,,2 ^A,, | C,2 z ^A,,2 z | B,,2 z B,,2 D, | ^D,2 z D,2 z | %46
 E,,2 z E,,2 A,, | =C,2 z G,,2 z | B,,2 z B,,2 z | ^D,2 z D,2 z | E,,2 z E,,2 z | =C,2 z G,,2 z | %52
 B,,2 z B,,2 ^A,, | G,,2 z F,,2 z | =C,2 z G,,2 z | F,,2 z A,,2 ^A,, | B,,2 z ^A,,2 =C, | %57
[K:G] z ^D,2 z F,,2 | C,2 z ^A,,2 z | B,,2 z B,,2 z | F,,2 z F,,2 z | B,,2 z B,,2 z | F,2 z F,2 z | %63
 B,,2 z B,,2 z | F,,2 z C,2 z | C,2 z C,2 z | G,,2 z G,,2 z | C,2 z C,2 z | B,,2 z B,,2 z | %69
 E,,2 z B,,2 z | B,,2 z B,,2 z | C,2 z C,2 z | G,,2 z ^A,,2 z | B,,2 z B,,2 z | F,2 z F,2 z | %75
 C,2 z C,2 z | G,,2 z G,,2 z | B,,2 z B,,2 z | F,2 z F,2 z | E,,2 z B,,2 z | A,,2 z F,,2 z | %81
 B,,2 z B,,2 z | F,2 z F,2 z | E,,2 z B,,2 z | A,,2 z F,,2 z | B,,2 z B,,2 z | F,2 z F,2 z | %87
 C,2 z C,2 z | G,,2 z G,,2 z | B,,2 z B,,2 z | F,2 z F,2 z | C,2 z C,2 z | G,,2 z G,,2 z | %93
 B,,2 z B,,2 z | F,2 z F,2 z | E,,2 z B,,2 z | A,,2 z F,,2 z | B,,2 z B,,2 z | F,2 z F,2 z | %99
 E,,2 z B,,2 z | A,,2 z F,,2 z | B,,2 z B,,2 z | F,2 z F,2 z | C,2 z C,2 z | F,,2 z ^C,2 z | %105
 B,,2 z B,,2 z | B,,2 z B,,2 z |] %107
V:3
 c'2 z ^a- a2 | b2 g2 d2 | f2- fB d2 | e2 f2 B2 | c2 d2 e2 | d3{/^A} c3 | B6 | z2 dd .d2 | z6 | %9
 z2 d'd' .d'2 | B2 d2 f2 | e4 d2 | f6 | Bd f^a b2 | B2 d2 f2 | e2 z B .d2 | c6 | z6 | cd- de- e2 | %19
 d4 c2 | e3 B3 | g6 | f2- fc d2 | e2 d2 c2 | B6 | F^A ce g2 | !>!^a2 b2 c'2 |{/a} !>!^a4 g2 | %28
 !>!f6 | B^d fa b2 | g2- gB g2 | f2 e2 d2 | f6 | ^d'b af ^d2 | gB- B z g2 | f2 e2 d2 | f4 e2 | %37
 d2 c2 B2 | c2 d2 e2 | d4 c2 | B6 | fd B^A F2 | c'2 b2 ^a2 |{/^a} b4 (3gag | f6 | ba f^d B2 | %46
 Bg- gB g2 | f2 e2 d2 | f6 | ^d'b ^af ^d2 | gB- B2 g2 | ^e2 f2 d2 |{/=f} ^f4 d2 | e2 f2 B2 | %54
 e2 d2 c2 |{/c} d4 .c2 | B6 |[K:G] z6 | z6 | B2 ^d2 f2 | e4 c2 | f6 | z2 bb .b2 | B2 ^d2 f2 | %64
{/^d} e4 d2 | c6 | z6 | c^d- d z .e2 | ^d4 c2 | e3 B3 | g6 | fc- c2 ^d2 |{/^d} e2 d2 c2 | B6 | z6 | %75
 !>!^d'2 c'2 b2 |{/b} !>!c'4 (3gag | !>!f6 | B^d fa c'2 | gB- B z g2 | f2 e2 ^d2 | f4 z2 | %82
 ^d'c' af ^d2 | g2 z B g2 | f2 e2 ^d2 | f2 z c e2 | ^d2 c2 B2 | f2 e2 ^d2 | e4 c2 | B6 | z6 | %91
 !>!^d'2 c'2 b2 |{/b} !>!c'4 (3g^ag | !>!f6 | B^d fa c'2 | gB- B z g2 | f2 e2 ^d2 | f4 z2 | %98
 ^d'c' af ^d2 | Bg- gB g2 | f2 e2 ^d2 | f2 z c e2 | ^d2 c2 B2 | f2 e2 ^d2 | e4 ^A2 | B6 | z6 |] %107

